packages/sources/icons/src/vitamix/checkbox-fill.svg

<svg width="16" height="16" viewBox="0 0 16 16" fill="none" xmlns="http://www.w3.org/2000/svg">
<path fill-rule="evenodd" clip-rule="evenodd" d="M13.3333 2H2.66667C2.29848 2 2 2.29848 2 2.66667V13.3333C2 13.7015 2.29848 14 2.66667 14H13.3333C13.7015 14 14 13.7015 14 13.3333V2.66667C14 2.29848 13.7015 2 13.3333 2ZM12.0487 5.9527L7.33533 10.6667L4.50667 7.83804L5.44933 6.89537L7.33533 8.78137L11.106 5.01004L12.0487 5.9527Z" fill="#001018"/>
</svg>

<svg width="16" height="16" fill="none" xmlns="http://www.w3.org/2000/svg"><path fill-rule="evenodd" clip-rule="evenodd" d="M13.333 2H2.667A.667.667 0 0 0 2 2.667v10.666c0 .368.298.667.667.667h10.666a.667.667 0 0 0 .667-.667V2.667A.667.667 0 0 0 13.333 2zM12.05 5.953l-4.714 4.714-2.828-2.829.942-.943 1.886 1.886 3.771-3.771.943.943z" fill="#001018"/></svg>
